X:8
T:Harding’s Folly’s Hornpipe. WM.008
M:C
L:1/8
Q:1/2=90
S:Wm.Mittell’s MS, New Romney,Kent,1799
R:.Hornpipe
O:England
A:Kent
Z:vmp.Chris Partington
K:CDor
de|fdB4ga|b6ag|fdBg ecAf|(3dcB B2B2c2|!
defga2b2|g=ec4B2|AcfAG2=e2|f6:|!
|:de|fdB4_a2|gfed efg_a|cdef g=Bc2|GFEDC2cd|!
ecA4g2|fedc defg|Bcde fAB2|FEDCB,4|!
(3dcB B2.B2.B2|gab4ge|(3cBA A2.A2.A2|fga4fd|!
B2gf edcB|cAF4E2|DFBDC2A2|B6:|

